X:1300
T:The Woman of the House
R:Reel
N:Collected by F. O'Neill
B:O'Neill's 1300
Z:Transcribed by Trish O'Neil
M:C|
N:Staff breaks fixed [jc]
L:1/8
K:G
GB c3BAB cBAB|GBdge2d2\
|1GB c3BAB cBAB|eA 3AGA eA 3AGA:|2G2BGA2GA|BcAc BGG2||
f2fde2ed|gfge dBGB|f2fde2ed|eA 3AAA eA 3AAA|
f2fde2ed|gfge dBGB|G2BGA2GA|BcAc BGG2||
f2fde2ed|gfge dBGB|f2fde2ed|eA 3AAA eA 3AAA|
gaba gfed|efge dBAB|G2BGA2GA|BcAc BGG2|]
